packages/vibrant-icons/assets/icons/ClearStyle/Thin.svg

<svg width="24" height="24" viewBox="0 0 24 24" fill="none" xmlns="http://www.w3.org/2000/svg">
<path d="M22.646 21.7273C22.7241 21.6492 22.7241 21.5226 22.646 21.4445L12.9494 11.7479V5.55038H18.4494V7.15088C18.4494 7.26134 18.539 7.35088 18.6494 7.35088H20.1494C20.2599 7.35088 20.3494 7.26134 20.3494 7.15088V3.84988C20.3494 3.73942 20.2599 3.64988 20.1494 3.64988H4.85144L2.55536 1.35333C2.47726 1.27521 2.35061 1.27521 2.2725 1.35332L1.35286 2.27296C1.27475 2.35106 1.27475 2.4777 1.35286 2.5558L21.444 22.6465C21.5221 22.7246 21.6487 22.7246 21.7268 22.6465L22.646 21.7273ZM11.0494 9.84838L6.75194 5.55088H11.0494V9.84838ZM14.3994 20.3504C14.5099 20.3504 14.5994 20.2608 14.5994 20.1504V18.6499C14.5994 18.5394 14.5099 18.4499 14.3994 18.4499H12.9494V17.4009L11.0494 15.5009V18.4499H9.59944C9.48898 18.4499 9.39944 18.5394 9.39944 18.6499V20.1504C9.39944 20.2608 9.48898 20.3504 9.59944 20.3504H14.3994Z" fill="#0C0C0C"/>
</svg>

<svg xmlns="http://www.w3.org/2000/svg" width="24" height="24" fill="none"><path fill="#0C0C0C" d="M22.646 21.727a.2.2 0 0 0 0-.282l-9.697-9.697V5.55h5.5v1.6c0 .111.09.2.2.2h1.5a.2.2 0 0 0 .2-.2v-3.3a.2.2 0 0 0-.2-.2H4.851L2.555 1.353a.2.2 0 0 0-.283 0l-.92.92a.2.2 0 0 0 0 .283l20.092 20.09a.2.2 0 0 0 .283 0zM11.049 9.848 6.752 5.551h4.297zM14.4 20.35a.2.2 0 0 0 .2-.2v-1.5a.2.2 0 0 0-.2-.2h-1.45V17.4l-1.9-1.9v2.95H9.6a.2.2 0 0 0-.2.2v1.5c0 .11.09.2.2.2z"/></svg>
